**kern	**silbe	**kern	**silbe
*ICvox	*	*ICvox	*
=1	=1	=1	=1
*G:	*	*G:	*
*M4/4	*	*M4/4	*
*clefG2	*	*clefG2	*
1r	.	1r	.
=2	=2	=2	=2
1r	.	1r	.
=3	=3	=3	=3
1r	.	1r	.
=4	=4	=4	=4
1r	.	1r	.
=5	=5	=5	=5
1r	.	1r	.
=6	=6	=6	=6
1r	.	1r	.
=7	=7	=7	=7
1r	.	1r	.
=8	=8	=8	=8
1r	.	1r	.
=9	=9	=9	=9
1r	.	4.d f# a	You're
.	.	[8B [d [f#	so
.	.	4B] d] f#]	_
.	.	[4F# [A [d	square
=10	=10	=10	=10
1r	.	1F#] A] d]	,
=11	=11	=11	=11
1r	.	4B d f#	ba
.	.	8r	.
.	.	8c e a	by
.	.	[2B [d [g	_
=12	=12	=12	=12
1r	.	4.B] d] g]	_
.	.	8r	.
.	.	2r	.
=13	=13	=13	=13
1r	.	4.c e g	You're
.	.	[8G [c [e	so
.	.	4G] c] e]	_
.	.	[4E [G [c	square
=14	=14	=14	=14
1r	.	1E_ G_ c_	_
=15	=15	=15	=15
1r	.	1E_ G_ c_	_
=16	=16	=16	=16
*clefC3	*	*	*
4r	.	2E_ G_ c]	_
aq	_	.	.
[4b-	Oh	.	.
8b-]	_	8E] G] B	_
8a	,	8r	.
4g	you	4r	.
=17	=17	=17	=17
4d	don't	1r	.
4d	like	.	.
4e	grea-	.	.
8e	-sy	.	.
[8e	di	.	.
=18	=18	=18	=18
8e]	_	1r	.
4.d	ners	.	.
4r	.	.	.
8r	.	.	.
8g	you	.	.
=19	=19	=19	=19
4g	don't	1r	.
4g	like	.	.
aq	_	.	.
4b-	slea-	.	.
4a	-zy	.	.
=20	=20	=20	=20
gq	_	1r	.
2a	bands	.	.
4r	.	.	.
8r	.	.	.
8d	you	.	.
=21	=21	=21	=21
4d	just	1r	.
8d	wan-	.	.
8d	-na	.	.
dq	_	.	.
4e	go	.	.
8B	to	.	.
8B	a	.	.
=22	=22	=22	=22
8d	mo-	1r	.
4d	-vie	.	.
8e	show	.	.
4r	.	.	.
8r	.	.	.
8d	and	.	.
=23	=23	=23	=23
4g	sit	1r	.
4g	there	.	.
8r	.	.	.
8a	hol-	.	.
8g	-ding	.	.
aq	_	.	.
[8b	hands	.	.
=24	=24	=24	=24
4.b]	_	4r	.
.	.	8r	.
ccq	_	aq	_
[8dd	you're	[8g [b	you're
4dd]	_	4g] b]	_
4b	so	4d g	so
=25	=25	=25	=25
4g	square	4B e	square
2.e	_	2.G c	_
=26	=26	=26	=26
4r	.	1r	.
8A	Ba-	.	.
8F#	-by,	.	.
8d	I	.	.
8B	don't	.	.
4F#	care.	.	.
=27	=27	=27	=27
1r	.	1r	.
=28	=28	=28	=28
1r	.	1r	.
=29	=29	=29	=29
1r	.	1r	.
=30	=30	=30	=30
2r	.	1r	.
4r	.	.	.
8r	.	.	.
8B	You	.	.
=31	=31	=31	=31
8c	don't	1r	.
8d	l-	.	.
4d	-like	.	.
8e	go-	.	.
8e	-ing	.	.
8e	to	.	.
[8e	par	.	.
=32	=32	=32	=32
8e]	_	1r	.
4.d	ties	.	.
4r	.	.	.
8r	.	.	.
8g	to	.	.
=33	=33	=33	=33
8g	toot	1r	.
8e	and	.	.
4g	talk	.	.
aq	_	.	.
4b-	all	.	.
4a	night	.	.
=34	=34	=34	=34
gq	_	1r	.
2a	long	.	.
4r	.	.	.
8r	.	.	.
8d	You	.	.
=35	=35	=35	=35
4B	just	1r	.
8d	wan-	.	.
8d	-na	.	.
dq	_	.	.
4e	park	.	.
8B	where	.	.
8B	it's	.	.
=36	=36	=36	=36
8r	.	1r	.
4d	nice	.	.
8B	and	.	.
8e	dark	.	.
4r	.	.	.
8B	and	.	.
=37	=37	=37	=37
4g	kiss	1r	.
4g	me	.	.
8r	.	.	.
ccq	_	.	.
8dd	sweet	.	.
4b	and	.	.
=38	=38	=38	=38
4g	strong	4r	.
8r	.	8r	.
ccq	_	aq	_
[8dd	you're	[8g [b	you're
4dd]	_	4g] b]	_
4b	so	4d g	so
=39	=39	=39	=39
4g	square	4B e	square
2.e	_	2.G c	_
=40	=40	=40	=40
4r	.	1r	.
8c	Dar-	.	.
8G	-ling,	.	.
dq	_	.	.
8.e	I	.	.
d	_	.	.
[16e	don't	.	.
8e]	_	.	.
8d	care	.	.
=41	=41	=41	=41
8A	_	1r	.
8r	.	.	.
4r	.	.	.
2r	.	.	.
=42	=42	=42	=42
2r	.	1r	.
4r	.	.	.
8r	.	.	.
8d	You	.	.
=43	=43	=43	=43
dq	_	1r	.
4e	don't	.	.
4g	know	.	.
4g	a-	.	.
8g	-ny	.	.
8g	dance	.	.
=44	=44	=44	=44
4a	_	1r	.
8a	steps	.	.
8r	.	.	.
8r	.	.	.
8g	that	.	.
8g	are	.	.
aq	_	.	.
[8b	new	.	.
=45	=45	=45	=45
2b_	_	1r	.
8b]	_	.	.
8d	_	.	.
8e	_	.	.
[8d	_	.	.
=46	=46	=46	=46
4d]	_	1r	.
4B	_	.	.
4r	.	.	.
8r	.	.	.
8d	But	.	.
=47	=47	=47	=47
dq	_	1r	.
4e	no-	.	.
8g	-bo-	.	.
8g	-dy	.	.
4g	else	.	.
8e	can	.	.
aq	_	.	.
[8b	love	.	.
=48	=48	=48	=48
8b]	_	1r	.
gq	_	.	.
4.a	me	.	.
8r	.	.	.
8g	the	.	.
4g	way	.	.
=49	=49	=49	=49
aq	_	1r	.
4b	you	.	.
gq	_	.	.
2.a	do!	.	.
=50	=50	=50	=50
2r	.	1r	.
4r	.	.	.
8r	.	.	.
8B	I	.	.
=51	=51	=51	=51
4d	don't	1r	.
4d	know	.	.
dq	_	.	.
4e	why	.	.
8c	my	.	.
[8e	heart	.	.
=52	=52	=52	=52
8e]	_	1r	.
4.d	flips	.	.
2r	.	.	.
=53	=53	=53	=53
8g	I	1r	.
8g	on-	.	.
4g	-ly	.	.
aq	_	.	.
4b-	know	.	.
4a	it	.	.
=54	=54	=54	=54
gq	_	1r	.
2a	does	.	.
4r	.	.	.
8r	.	.	.
8d	I	.	.
=55	=55	=55	=55
4d	won-	1r	.
4d	-der	.	.
dq	_	.	.
4e	why	.	.
8r	.	.	.
8B	I	.	.
=56	=56	=56	=56
4d	love	1r	.
8B	you,	.	.
[8e	ba	.	.
8e]	_	.	.
8e	by	.	.
8r	.	.	.
8d	I	.	.
=57	=57	=57	=57
4g	guess	1r	.
4g	it's	.	.
4a	just	.	.
8g	be-	.	.
aq	_	.	.
[8b	-cause	.	.
=58	=58	=58	=58
4.b]	_	2r	.
8a	y-	.	.
4b	-you're	4e g	You're
4a	so	4d f#	so
=59	=59	=59	=59
4g	square	4c e	square
2.e	_	2.G c	!
=60	=60	=60	=60
4r	.	1r	.
8G	Ba-	.	.
8G	-by,	.	.
8e	I	.	.
8B	don't	.	.
4E	care.	.	.
=61	=61	=61	=61
1r	.	1r	.
=62	=62	=62	=62
1r	.	1r	.
=63	=63	=63	=63
1r	.	1r	.
=64	=64	=64	=64
1r	.	1r	.
=65	=65	=65	=65
1r	.	1r	.
=66	=66	=66	=66
1r	.	1r	.
=67	=67	=67	=67
1r	.	1r	.
=68	=68	=68	=68
1r	.	1r	.
=69	=69	=69	=69
1r	.	1r	.
=70	=70	=70	=70
4r	.	1r	.
4b-	Oh	.	.
4a	,	.	.
4g	I	.	.
=71	=71	=71	=71
4g	don't	1r	.
4g	know	.	.
aq	_	.	.
4b-	why	.	.
8a	my	.	.
[8a	heart	.	.
=72	=72	=72	=72
8a]	_	1r	.
4.g	flips	.	.
4r	.	.	.
8r	.	.	.
8d	I	.	.
=73	=73	=73	=73
4d	on-	1r	.
4d	-ly	.	.
f#q	_	.	.
8e	know	.	.
4B	it	.	.
eq	_	.	.
[8d	does	.	.
=74	=74	=74	=74
2d]	_	1r	.
4r	.	.	.
8r	.	.	.
8A	I	.	.
=75	=75	=75	=75
4B	won-	1r	.
4d	-der	.	.
dq	_	.	.
4e	why	.	.
8r	.	.	.
8B	I	.	.
=76	=76	=76	=76
6d	love	1r	.
6e	you	.	.
[6e	ba	.	.
8e]	_	.	.
8e	by	.	.
8r	.	.	.
8d	I	.	.
=77	=77	=77	=77
4g	guess	1r	.
4g	it's	.	.
6r	.	.	.
6b-	just	.	.
6a	be-	.	.
=78	=78	=78	=78
gq	_	2r	.
4.a	-cause,	.	.
8a	you're	.	.
4b	_	4e g	You're
4a	so	4d f#	so
=79	=79	=79	=79
4g	square	4c e	square
2.e	_	2.G c	!
=80	=80	=80	=80
2r	.	1r	.
8e	I	.	.
8B	don't	.	.
4E	care.	.	.
=81	=81	=81	=81
3f# b dd	You're	1r	.
[3d [f# [b	so	.	.
6d] f#] b]	_	.	.
[6G [d	square	.	.
=82	=82	=82	=82
1G_ d_	_	1r	.
=83	=83	=83	=83
1G] d]	!	1r	.
=84	=84	=84	=84
1r	.	1r	.
=85	=85	=85	=85
3e g cc	You're	1r	.
3c e g	so	.	.
[3E [G [c	square	.	.
=86	=86	=86	=86
1E_ G_ c_	_	1r	.
=87	=87	=87	=87
2.E] G] c]	_	1r	.
4r	.	.	.
=88	=88	=88	=88
1r	.	1r	.
=89	=89	=89	=89
3f# a dd	You're	1r	.
[3d [f# [a	so	.	.
6d] f#] a]	_	.	.
[6d [f#	square	.	.
=90	=90	=90	=90
1d_ f#_	_	1r	.
=91	=91	=91	=91
2d] f#]	!	1r	.
2r	.	.	.
=92	=92	=92	=92
1r	.	1r	.
=93	=93	=93	=93
3e g cc	You're	1r	.
3c e g	so	.	.
[3E [G [c	square	.	.
=94	=94	=94	=94
1E_ G_ c_	_	1r	.
=95	=95	=95	=95
4E] G] c]	_	1r	.
4r	.	.	.
2r	.	.	.
=96	=96	=96	=96
1r	.	1r	.
=97	=97	=97	=97
3f# a dd	You're	1r	.
[3d [f# [a	so	.	.
6d] f#] a]	_	.	.
[6d [f#	square	.	.
=98	=98	=98	=98
1d_ f#_	_	1r	.
=99	=99	=99	=99
2d] f#]	!	1r	.
2r	.	.	.
=100	=100	=100	=100
1r	.	1r	.
=101	=101	=101	=101
3e g cc	You're	1r	.
3c e g	so	.	.
[3E [G [c	square	.	.
=102	=102	=102	=102
1E_ G_ c_	_	1r	.
=103	=103	=103	=103
4E] G] c]	_	1r	.
4r	.	.	.
2r	.	.	.
=104	=104	=104	=104
1r	.	1r	.
=105	=105	=105	=105
1r	.	1r	.
=106	=106	=106	=106
1r	.	1r	.
=107	=107	=107	=107
1r	.	1r	.
=108	=108	=108	=108
1r	.	1r	.
=109	=109	=109	=109
1r	.	1r	.
=110	=110	=110	=110
1r	.	1r	.
*-	*-	*-	*-
!!!ENC: Nathaniel Condit-Schultz